public/assets/features/database.svg

<svg width="58" height="58" viewBox="0 0 58 58" fill="none" xmlns="http://www.w3.org/2000/svg">
<path d="M14.5 17.4H5.8C2.61 17.4 0 14.79 0 11.6V5.8C0 2.61 2.61 0 5.8 0H14.5C17.69 0 20.3 2.61 20.3 5.8V11.6C20.3 14.79 17.69 17.4 14.5 17.4ZM54.52 14.5H44.08C42.166 14.5 40.6 12.934 40.6 11.02V6.38C40.6 4.466 42.166 2.9 44.08 2.9H54.52C56.434 2.9 58 4.466 58 6.38V11.02C58 12.934 56.434 14.5 54.52 14.5ZM54.52 36.25H44.08C42.166 36.25 40.6 34.684 40.6 32.77V28.13C40.6 26.216 42.166 24.65 44.08 24.65H54.52C56.434 24.65 58 26.216 58 28.13V32.77C58 34.684 56.434 36.25 54.52 36.25Z" fill="url(#paint0_linear_383_33)"/>
<path opacity="0.96" d="M40.6 32.6244C41.789 32.6244 42.775 31.6384 42.775 30.4494C42.775 29.2604 41.789 28.2744 40.6 28.2744H32.625V10.8744H40.6C41.789 10.8744 42.775 9.88841 42.775 8.69941C42.775 7.51041 41.789 6.52441 40.6 6.52441H20.3C19.111 6.52441 18.125 7.51041 18.125 8.69941C18.125 9.88841 19.111 10.8744 20.3 10.8744H28.275V46.3994C28.275 50.8074 31.842 54.3744 36.25 54.3744H40.6C41.789 54.3744 42.775 53.3884 42.775 52.1994C42.775 51.0104 41.789 50.0244 40.6 50.0244H36.25C34.249 50.0244 32.625 48.4004 32.625 46.3994V32.6244H40.6Z" fill="url(#paint1_linear_383_33)"/>
<path d="M54.5206 57.9994H44.0806C42.1666 57.9994 40.6006 56.4334 40.6006 54.5194V49.8794C40.6006 47.9654 42.1666 46.3994 44.0806 46.3994H54.5206C56.4346 46.3994 58.0006 47.9654 58.0006 49.8794V54.5194C58.0006 56.4334 56.4346 57.9994 54.5206 57.9994Z" fill="url(#paint2_linear_383_33)"/>
<defs>
<linearGradient id="paint0_linear_383_33" x1="-5.8" y1="-0.90625" x2="49.9552" y2="86.9902" gradientUnits="userSpaceOnUse">
<stop offset="0.015625" stop-color="#D85061"/>
<stop offset="0.567708" stop-color="#CC0F64"/>
<stop offset="0.973958" stop-color="#BE0970"/>
</linearGradient>
<linearGradient id="paint1_linear_383_33" x1="15.66" y1="5.32816" x2="81.3282" y2="38.6598" gradientUnits="userSpaceOnUse">
<stop offset="0.015625" stop-color="#D85061"/>
<stop offset="0.567708" stop-color="#CC0F64"/>
<stop offset="0.973958" stop-color="#BE0970"/>
</linearGradient>
<linearGradient id="paint2_linear_383_33" x1="38.8606" y1="46.1094" x2="57.168" y2="73.1667" gradientUnits="userSpaceOnUse">
<stop offset="0.015625" stop-color="#D85061"/>
<stop offset="0.567708" stop-color="#CC0F64"/>
<stop offset="0.973958" stop-color="#BE0970"/>
</linearGradient>
</defs>
</svg>

<svg xmlns="http://www.w3.org/2000/svg" width="58" height="58" fill="none" xmlns:v="https://vecta.io/nano"><path d="M14.5 17.4H5.8A5.82 5.82 0 0 1 0 11.6V5.8A5.82 5.82 0 0 1 5.8 0h8.7a5.82 5.82 0 0 1 5.8 5.8v5.8a5.82 5.82 0 0 1-5.8 5.8zm40.02-2.9H44.08a3.49 3.49 0 0 1-3.48-3.48V6.38a3.49 3.49 0 0 1 3.48-3.48h10.44A3.49 3.49 0 0 1 58 6.38v4.64a3.49 3.49 0 0 1-3.48 3.48zm0 21.75H44.08a3.49 3.49 0 0 1-3.48-3.48v-4.64a3.49 3.49 0 0 1 3.48-3.48h10.44A3.49 3.49 0 0 1 58 28.13v4.64a3.49 3.49 0 0 1-3.48 3.48z" fill="url(#A)"/><path opacity=".96" d="M40.6 32.624c1.189 0 2.175-.986 2.175-2.175s-.986-2.175-2.175-2.175h-7.975v-17.4H40.6c1.189 0 2.175-.986 2.175-2.175s-.986-2.175-2.175-2.175H20.3c-1.189 0-2.175.986-2.175 2.175s.986 2.175 2.175 2.175h7.975v35.525a7.97 7.97 0 0 0 7.975 7.975h4.35c1.189 0 2.175-.986 2.175-2.175s-.986-2.175-2.175-2.175h-4.35c-2.001 0-3.625-1.624-3.625-3.625V32.624H40.6z" fill="url(#B)"/><path d="M54.521 57.999h-10.44a3.49 3.49 0 0 1-3.48-3.48v-4.64a3.49 3.49 0 0 1 3.48-3.48h10.44a3.49 3.49 0 0 1 3.48 3.48v4.64a3.49 3.49 0 0 1-3.48 3.48z" fill="url(#C)"/><defs><linearGradient id="A" x1="-5.8" y1="-.906" x2="49.955" y2="86.99" gradientUnits="userSpaceOnUse"><stop offset=".016" stop-color="#d85061"/><stop offset=".568" stop-color="#cc0f64"/><stop offset=".974" stop-color="#be0970"/></linearGradient><linearGradient id="B" x1="15.66" y1="5.328" x2="81.328" y2="38.66" gradientUnits="userSpaceOnUse"><stop offset=".016" stop-color="#d85061"/><stop offset=".568" stop-color="#cc0f64"/><stop offset=".974" stop-color="#be0970"/></linearGradient><linearGradient id="C" x1="38.861" y1="46.109" x2="57.168" y2="73.167" gradientUnits="userSpaceOnUse"><stop offset=".016" stop-color="#d85061"/><stop offset=".568" stop-color="#cc0f64"/><stop offset=".974" stop-color="#be0970"/></linearGradient></defs></svg>
